X: 1655
T: Safâlar Getirdiniz
C: Avni Anıl
O: Turkey
F: http://compmusic.upf.edu/node/140
N: kurdilihicazkar--sarki--aksak--safalar_getirdiniz--avni_anil
N: makam= kurdilihicazkar
N: form= sarki
N: usul= aksak = 9/8
M: 9/8
L: 1/16
K: C _B _e _A 
Q: 1/4=288
%%MIDI tuningsystem comma53
g2gg g2gg g2gg g2a2 f2 | g2 ggg2 ggg2 ggg2 a2f2  | 
w:  ARANAĞME  |   | 
g2gg g2gg g2gg b2=a2 _a2 | g4z8d2 e2=e2  | \
w:   |   | 
f2ff f2ff f2ff a2g2 f2 | 
w:   | 
f2 fff2 fff2 ffa2 g2f2  | f2ff f2ff f2ff a2g2 f2 | 
w:   |   | 
f4z8d2 e2f2  | g12 f2e2 d2 | d4d4d4B2 A2G2  | \
w:   |   |   | 
A4 A4 A4 d2d4 | G4d2 d2G4.d2 .d2.d2  | 
w:   |   | 
G4 d2d2 G4 A2G2 F2 | G6 ABcd efg6  | \
w:   |   | 
g2gg g2gg g2gg g2a2 f2 | 
w:  ARANAĞME  | 
g2 ggg2 ggg2 ggg2 a2f2  | g2gg g2gg g2gg b2=a2 _a2 | 
w:   |   | 
g4z8d2 e2=e2  | f2ff f2ff f2ff a2g2 f2 | \
w:   |   | 
f2 fff2 fff2 ffa2 g2f2  | 
w:   | 
f2ff f2ff f2ff a2g2 f2 | f4z8d2 e2f2  | \
w:   |   | 
g12 f2e2 d2 | 
w:   | 
d4d4d4B2 A2G2  | A4 A4 A4 d2d4 | G4d2 d2G4.d2 .d2.d2  | \
w:   |   |   | 
G4 d2d2 G4 A2G2 F2 | 
w:   | 
G6 ABcd efg6  | g2g6 g8-g2 | f2 a2g2 f2e2 f2g6  | \
w:   |  Sa fa lar   |  ge tir *  *  di *  niz   | 
g2b2 a2g2 a2g2 a2g2 f2 | 
w:  Sa fa *  *  gel *  di  | 
f4{b}a2 g2g2 fedc BAG2  | g2g6 g8-g2 | \
w:  niz  *  dost *  lar   SAZ  |  Sa fa lar   | 
f2 a2g2 f2e2 f2g6  | 
w:  ge tir *  *  di *  niz   | 
g2b2 a2g2 a2g2 a2g2 f2 | f4{b}a2 g2g4d2 e2=e2  | \
w:  Sa fa *  *  gel *  di  |  niz  *  dost *  lar   SAZ  | 
f2f4f2 f4 _7/8g2{a}gf e2 | 
w:  *  Bez me  rev nak   | 
z2 e4 d2e2 f2g6  | g2g4d2 d4 e2d2 c2 | \
w:  ver di niz   |  Sa fa *  gel di  | 
B2 A2A2 G2G4d2 e2=e2  | 
w:  niz  *  dost *  lar   SAZ  | 
f2f4f2 f4 _7/8g2{a}gf e2 | z2 e4 d2e2 f2g6  | \
w:  *  Bez me  rev nak   |  ver di niz   | 
g2g4d2 d4 e2d2 c2 | 
w:  Sa fa *  gel di  | 
B2 A2A2 G2G4cd efg2  | g4 z4 .g4 g4 f2 | \
w:  niz  *  dost *  lar   SAZ  |  Ye  iç  gül   | 
f4{a}g2 f2e2 f2g6  | 
w:  eğ *  len  *  dost *  lar    | 
d2z2 .d4 .d4 e2d2 c2 | B4B2 A2A2 G2B2 A2G2  | \
w:  *  Eh len  ve   |  seh len  *  dost *  lar    | 
G6AB cdef g6 | 
w:  hey   SAZ  | 
g4z4.g4g4f2  | f4 {a}g2f2 e2f2 g6 | d2 z2.d4.d4e2 d2c2  | \
w:  Ye  iç  gül   |  eğ *  len  *  dost *  lar    |  *  Eh len  ve   | 
B4 B2A2 A2G2 B2A2 G2 | 
w:  seh len  *  dost *  lar    | 
G6 ABcd efg6  | g2gg g2gg g2gg g2a2 f2 | \
w:  hey   SAZ  |  ARANAĞME  | 
g2 ggg2 ggg2 ggg2 a2f2  | 
w:   | 
g2gg g2gg g2gg b2=a2 _a2 | g4z8d2 e2=e2  | \
w:   |   | 
f2ff f2ff f2ff a2g2 f2 | 
w:   | 
f2 fff2 fff2 ffa2 g2f2  | f2ff f2ff f2ff a2g2 f2 | 
w:   |   | 
f4z8d2 e2f2  | g12 f2e2 d2 | d4d4d4B2 A2G2  | \
w:   |   |   | 
A4 A4 A4 d2d4 | G4d2 d2G4.d2 .d2.d2  | 
w:   |   | 
G4 d2d2 G4 A2G2 F2 | G6 ABcd efg6  | \
w:   |   | 
g2gg g2gg g2gg g2a2 f2 | 
w:  ARANAĞME  | 
g2 ggg2 ggg2 ggg2 a2f2  | g2gg g2gg g2gg b2=a2 _a2 | 
w:   |   | 
g4z8d2 e2=e2  | f2ff f2ff f2ff a2g2 f2 | \
w:   |   | 
f2 fff2 fff2 ffa2 g2f2  | 
w:   | 
f2ff f2ff f2ff a2g2 f2 | f4z8d2 e2f2  | \
w:   |   | 
g12 f2e2 d2 | 
w:   | 
d4d4d4B2 A2G2  | A4 A4 A4 d2d4 | G4d2 d2G4.d2 .d2.d2  | \
w:   |   |   | 
G4 d2d2 G4 A2G2 F2 | 
w:   | 
G6 ABcd efg6  | z2g4g2 g4 g6 | g2 a2g2 f2e2 f2g4fg  | 
w:   |  Raks_ e di yor   |  bir  *  *  *  pe *  rî   SAZ  | 
a2b2 a2g2 a2g2 a2g2 f2 | f4(3b2a2g2g2 fedc BAG2  | 
w:  *  Mey  *  su nu *  yor   |  dil be *  *  ri   SAZ  | 
z2g4g2 g4 g6 | g2 a2g2 f2e2 f2g4fg  | \
w:  Raks_ e di yor   |  bir  *  *  *  pe *  rî   SAZ  | 
a2b2 a2g2 a2g2 a2g2 f2 | 
w:  *  Mey  *  su nu *  yor   | 
f4(3b2a2g2g4d2 e2=e2  | f4 f2f4f2 _7/8g3f e2 | \
w:  dil be *  *  ri   SAZ  |  *  Fı kır  fı kır   | 
z2 e4 d2e2 f2g6  | 
w:  her  *  ye *  ri    | 
g2g6 d4 e2d2 c2 | B2 A2A2 G2G4d2 e2=e2  | \
w:  Sa fâ  gel di  |  niz  *  dost *  lar   SAZ  | 
f4 f2f4f2 _7/8g3f e2 | 
w:  *  Fı kır  fı kır   | 
z2 e4 d2e2 f2g6  | g2g6 d4 e2d2 c2 | \
w:  her  *  ye *  ri    |  Sa fâ  gel di  | 
B2 A2A2 G2G8z2  | g4 z4 .g4 g4 f2 | 
w:  niz  *  dost *  lar    |  Ye  iç  gül   | 
f4{a}g2 f2e2 f2g6  | d2z2 .d4 .d4 e2d2 c2 | \
w:  eğ *  len  *  dost *  lar    |  *  Eh len  ve   | 
B4B2 A2A2 G2B2 A2G2  | 
w:  seh len  *  dost *  lar    | 
G6AB cdef g6 | g4z4.g4g4f2  | f4 {a}g2f2 e2f2 g6 | \
w:  hey   SAZ  |  Ye  iç  gül   |  eğ *  len  *  dost *  lar    | 
d2 z2.d4.d4e2 d2c2  | 
w:  *  Eh len  ve   | 
B4 B2A2 A2G2 B2A2 G2 | G18  | |


